X: 1
T: Beaujolais In Boston
M: 4/4
L: 1/8
R: reel
K: Edor
|: E3G FEAF | GEED EDB,D | E3F GABd | bafd B2AF |
E3G FEAF | GEED EDB,D | G3d BAFA | GEED E4 :|
|:e2 ed B2 BA | GE E2 GABd | edef gfgb | af f2 abag|
e2 ed B2 BA | GE E2 EDB,D | G3d BAFA | GEED E4 :|
